; generated by PrusaSlicer 2.6.1 on 2023-11-12 at 11:23:46 UTC

; 

; external perimeters extrusion width = 0.45mm
; perimeters extrusion width = 0.45mm
; infill extrusion width = 0.45mm
; solid infill extrusion width = 0.45mm
; top infill extrusion width = 0.40mm
; first layer extrusion width = 0.42mm

;TYPE:Custom
G28 ; home all axes
 M117 Purge extruder
 G92 E0 ; reset extruder
 M109 S210 ; wait for the nozzle to heat up
 M190 S60 ; wait for the bed to heat up
 G1 Z1.0 F3000 ; move z up little to prevent scratching of surface
 G1 X2 Y20 Z0.3 F5000.0 ; move to start-line position
 G1 X2 Y200.0 Z0.3 F1500.0 E15 ; draw 1st line
 G1 X2 Y200.0 Z0.4 F5000.0 ; move to side a little
 G1 X2 Y20 Z0.4 F1500.0 E30 ; draw 2nd line
 G92 E0 ; reset extruder
 G1 Z1.0 F3000 ; move z up little to prevent scratching of surface
G21 ; set units to millimeters
G90 ; use absolute coordinates
M82 ; use absolute distances for extrusion
G92 E0
; Filament gcode
M107
;LAYER_CHANGE
;Z:0.3
;HEIGHT:0.3
 ; After First Layer

G1 E-2 F2400
G92 E0
G1 Z.3 F6000
G1 X83.242 Y85.412
G1 E2 F2400
;TYPE:Skirt/Brim
;WIDTH:0.42
G1 F1800
G1 X86.759 Y82.064 E2.21538
G1 X88.942 Y80.36 E2.33821
G1 X91.381 Y78.783 E2.46703
G1 X95.821 Y76.522 E2.68803
G1 X98.639 Y75.469 E2.82146
G1 X102.664 Y74.396 E3.00622
G1 X105.531 Y73.92 E3.13513
G1 X107.514 Y73.728 E3.2235
G1 X109.937 Y73.647 E3.33103
G1 X112.683 Y73.76 E3.45293
G1 X115.96 Y74.14 E3.59925
G1 X119.298 Y74.857 E3.75068
G1 X121.295 Y75.446 E3.84303
G1 X123.386 Y76.199 E3.94161
G1 X125.825 Y77.273 E4.05982
G1 X128.718 Y78.849 E4.20594
G1 X132.478 Y81.432 E4.40828
G1 X135.345 Y83.939 E4.57721
G1 X137.667 Y86.439 E4.72855
G1 X139.266 Y88.436 E4.84202
G1 X141.097 Y91.184 E4.98849
G1 X142.135 Y93.005 E5.08146
G1 X142.819 Y94.383 E5.1497
G1 X144.39 Y98.223 E5.33373
G1 X145.441 Y101.971 E5.50638
G1 X146.093 Y105.722 E5.67525
G1 X146.331 Y108.922 E5.81758
G1 X146.317 Y110.917 E5.90607
G1 X145.98 Y115.085 E6.09154
G1 X145.235 Y118.931 E6.2653
G1 X143.809 Y123.33 E6.47041
G1 X142.683 Y125.912 E6.59535
G1 X140.708 Y129.449 E6.77503
G1 X139.568 Y131.14 E6.86549
G1 X138.362 Y132.744 E6.9545
G1 X135.517 Y135.884 E7.14244
G1 X133.894 Y137.399 E7.24092
G1 X132.044 Y138.892 E7.34636
G1 X129.082 Y140.934 E7.50593
G1 X127.184 Y142.031 E7.60317
G1 X124.092 Y143.503 E7.75506
G1 X120.388 Y144.822 E7.92946
G1 X116.7 Y145.727 E8.09789
G1 X113.413 Y146.193 E8.24514
G1 X110.14 Y146.357 E8.3905
G1 X106.182 Y146.156 E8.56628
G1 X102.654 Y145.604 E8.72467
G1 X99.965 Y144.942 E8.8475
G1 X97.497 Y144.138 E8.96263
G1 X95.71 Y143.429 E9.0479
G1 X93.152 Y142.203 E9.17372
G1 X90.715 Y140.815 E9.29812
G1 X88.541 Y139.347 E9.41447
G1 X85.65 Y136.994 E9.5798
G1 X83.682 Y135.06 E9.70219
G1 X81.486 Y132.552 E9.85005
G1 X79.779 Y130.188 E9.97938
G1 X77.814 Y126.9 E10.14928
G1 X76.585 Y124.283 E10.27752
G1 X74.942 Y119.631 E10.49635
G1 X74.005 Y115 E10.70592
G1 X73.851 Y113.638 E10.76672
G1 X73.663 Y108.933 E10.97558
G1 X73.873 Y105.928 E11.10919
G1 X74.381 Y102.722 E11.25317
G1 X75.564 Y98.357 E11.45376
G1 X76.69 Y95.444 E11.59228
G1 X78.211 Y92.364 E11.74464
G1 X79.637 Y90.01 E11.86671
G1 X81.301 Y87.684 E11.99356
G1 X83.203 Y85.457 E12.12346
;WIPE_START
G1 F4800
G1 X86.249 Y82.55 E10.12346
;WIPE_END
G92 E0
G1 X138.161 Y117.216 F6000
G1 E2 F2400
;TYPE:Perimeter
;WIDTH:0.42
G1 F1800
G1 X137.026 Y120.692 E2.16219
G1 X136.168 Y122.669 E2.25778
G1 X134.651 Y125.414 E2.39689
G1 X133.667 Y126.881 E2.47524
G1 X132.736 Y128.126 E2.54419
G1 X130.396 Y130.713 E2.69891
G1 X129.099 Y131.925 E2.77765
G1 X127.576 Y133.148 E2.86429
G1 X125.014 Y134.9 E3.00196
G1 X124.017 Y135.479 E3.0531
G1 X121.077 Y136.879 E3.19753
G1 X118.243 Y137.867 E3.33065
G1 X115.129 Y138.619 E3.47274
G1 X112.486 Y138.975 E3.59103
G1 X110.033 Y139.08 E3.69993
G1 X106.952 Y138.919 E3.83677
G1 X104.102 Y138.472 E3.96473
G1 X102.201 Y138.016 E4.05144
G1 X99.781 Y137.229 E4.16431
G1 X98.475 Y136.698 E4.22684
G1 X96.724 Y135.863 E4.31288
G1 X94.352 Y134.512 E4.43396
G1 X92.612 Y133.308 E4.52781
G1 X90.404 Y131.481 E4.65492
G1 X88.725 Y129.805 E4.76014
G1 X87.192 Y128.034 E4.86403
G1 X85.844 Y126.165 E4.96624
G1 X84.178 Y123.367 E5.11068
G1 X83.416 Y121.774 E5.189
G1 X81.975 Y117.754 E5.37842
G1 X81.138 Y113.52 E5.56985
G1 X80.94 Y108.945 E5.77296
G1 X81.093 Y106.84 E5.86657
G1 X81.522 Y104.126 E5.98844
G1 X82.529 Y100.469 E6.15668
G1 X83.443 Y98.154 E6.26707
G1 X83.955 Y97.067 E6.32036
G1 X84.627 Y95.799 E6.38401
G1 X85.744 Y93.969 E6.47911
G1 X87.057 Y92.138 E6.57905
G1 X88.202 Y90.752 E6.65879
G1 X91.739 Y87.37 E6.87585
G1 X93.145 Y86.301 E6.95419
G1 X94.984 Y85.107 E7.05144
G1 X98.803 Y83.161 E7.24155
G1 X100.648 Y82.464 E7.32903
G1 X104.073 Y81.536 E7.48642
G1 X106.293 Y81.156 E7.58632
G1 X107.891 Y80.995 E7.65756
G1 X109.552 Y80.92 E7.73131
G1 X111.962 Y81.006 E7.83827
G1 X114.52 Y81.273 E7.95235
G1 X117.286 Y81.85 E8.07768
G1 X119.067 Y82.374 E8.16002
G1 X120.684 Y82.957 E8.23626
G1 X122.655 Y83.823 E8.33175
G1 X124.652 Y84.885 E8.43207
G1 X128.142 Y87.278 E8.61976
G1 X130.244 Y89.131 E8.74405
G1 X132.19 Y91.232 E8.87107
G1 X133.346 Y92.67 E8.95291
G1 X134.891 Y94.986 E9.0764
G1 X135.649 Y96.305 E9.14388
G1 X136.206 Y97.423 E9.19928
G1 X137.527 Y100.652 E9.35402
G1 X138.38 Y103.737 E9.49599
G1 X138.884 Y106.731 E9.63066
G1 X139.052 Y108.872 E9.72592
G1 X139.057 Y110.387 E9.79312
G1 X138.844 Y113.609 E9.93634
G1 X138.172 Y117.157 E10.09651
G1 X138.506 Y117.305 F6000
G1 F1800
G1 X137.359 Y120.818 E10.26042
G1 X136.488 Y122.826 E10.3575
G1 X134.955 Y125.6 E10.49808
G1 X133.958 Y127.086 E10.57745
G1 X133.011 Y128.353 E10.64761
G1 X130.649 Y130.963 E10.80374
G1 X129.332 Y132.194 E10.8837
G1 X127.788 Y133.434 E10.97154
G1 X125.203 Y135.201 E11.11042
G1 X124.183 Y135.794 E11.16275
G1 X121.213 Y137.209 E11.30867
G1 X118.344 Y138.209 E11.44343
G1 X115.195 Y138.969 E11.58711
G1 X112.518 Y139.33 E11.70692
G1 X110.031 Y139.436 E11.81733
G1 X106.915 Y139.273 E11.95573
G1 X104.032 Y138.821 E12.08517
G1 X102.104 Y138.359 E12.17311
G1 X99.659 Y137.563 E12.28716
G1 X98.332 Y137.024 E12.35069
G1 X96.559 Y136.179 E12.43781
G1 X94.163 Y134.813 E12.56014
G1 X92.397 Y133.592 E12.65537
G1 X90.165 Y131.744 E12.7839
G1 X88.465 Y130.047 E12.89044
G1 X86.913 Y128.255 E12.99559
G1 X85.546 Y126.36 E13.09923
G1 X83.864 Y123.535 E13.24506
G1 X83.087 Y121.911 E13.32491
G1 X81.631 Y117.849 E13.5163
G1 X80.784 Y113.562 E13.71012
G1 X80.584 Y108.932 E13.91567
G1 X80.739 Y106.799 E14.01053
G1 X81.174 Y104.051 E14.13393
G1 X82.191 Y100.356 E14.30392
G1 X83.117 Y98.013 E14.41567
G1 X83.637 Y96.908 E14.46984
G1 X84.318 Y95.623 E14.53435
G1 X85.447 Y93.772 E14.63052
G1 X86.775 Y91.921 E14.73157
G1 X87.942 Y90.51 E14.81279
G1 X91.508 Y87.1 E15.03164
G1 X92.941 Y86.01 E15.1115
G1 X94.806 Y84.799 E15.21013
G1 X98.659 Y82.836 E15.40193
G1 X100.539 Y82.125 E15.49108
G1 X103.997 Y81.189 E15.64998
G1 X106.246 Y80.804 E15.75118
G1 X107.865 Y80.64 E15.82336
G1 X109.55 Y80.564 E15.89817
G1 X111.987 Y80.651 E16.00633
G1 X114.575 Y80.921 E16.12174
G1 X117.373 Y81.505 E16.24852
G1 X119.178 Y82.036 E16.33197
G1 X120.816 Y82.627 E16.40921
G1 X122.81 Y83.503 E16.50581
G1 X124.837 Y84.58 E16.60762
G1 X128.361 Y86.997 E16.79716
G1 X130.493 Y88.876 E16.92321
G1 X132.459 Y91 E17.05158
G1 X133.633 Y92.459 E17.13464
G1 X135.194 Y94.799 E17.2594
G1 X135.963 Y96.137 E17.32785
G1 X136.53 Y97.276 E17.38428
G1 X137.864 Y100.536 E17.54051
G1 X138.728 Y103.66 E17.68428
G1 X139.237 Y106.687 E17.82043
G1 X139.407 Y108.858 E17.91702
G1 X139.413 Y110.398 E17.98533
G1 X139.197 Y113.654 E18.13007
G1 X138.518 Y117.246 E18.29221
G1 X138.855 Y117.374 F6000
;TYPE:External perimeter
G1 F1800
G1 X137.692 Y120.944 E18.45875
G1 X136.807 Y122.983 E18.55734
G1 X135.259 Y125.785 E18.69933
G1 X134.248 Y127.292 E18.77982
G1 X133.286 Y128.579 E18.85109
G1 X130.903 Y131.213 E19.00864
G1 X129.565 Y132.463 E19.08986
G1 X128 Y133.72 E19.17889
G1 X125.393 Y135.502 E19.31896
G1 X124.349 Y136.108 E19.3725
G1 X121.348 Y137.538 E19.51995
G1 X118.444 Y138.551 E19.65637
G1 X115.26 Y139.319 E19.80165
G1 X112.549 Y139.684 E19.92298
G1 X110.029 Y139.792 E20.03486
G1 X106.878 Y139.627 E20.17481
G1 X103.963 Y139.17 E20.30568
G1 X102.008 Y138.701 E20.39485
G1 X99.537 Y137.897 E20.51011
G1 X98.188 Y137.349 E20.57469
G1 X96.395 Y136.494 E20.6628
G1 X93.973 Y135.115 E20.78642
G1 X92.182 Y133.876 E20.88302
G1 X89.925 Y132.008 E21.01297
G1 X88.204 Y130.29 E21.12083
G1 X86.634 Y128.475 E21.22727
G1 X85.249 Y126.556 E21.33224
G1 X83.55 Y123.703 E21.47952
G1 X82.759 Y122.048 E21.56088
G1 X81.288 Y117.944 E21.75425
G1 X80.43 Y113.605 E21.95043
G1 X80.229 Y108.92 E22.15842
G1 X80.386 Y106.758 E22.25457
G1 X80.826 Y103.976 E22.3795
G1 X81.853 Y100.243 E22.55123
G1 X82.79 Y97.872 E22.66431
G1 X83.319 Y96.749 E22.71937
G1 X84.008 Y95.447 E22.78471
G1 X85.15 Y93.576 E22.88194
G1 X86.493 Y91.703 E22.98417
G1 X87.681 Y90.267 E23.06683
G1 X91.276 Y86.829 E23.28746
G1 X92.736 Y85.719 E23.36881
G1 X94.628 Y84.49 E23.46888
G1 X98.515 Y82.51 E23.66237
G1 X100.429 Y81.786 E23.75314
G1 X103.92 Y80.841 E23.91356
G1 X106.198 Y80.451 E24.01607
G1 X107.84 Y80.286 E24.08927
G1 X109.548 Y80.208 E24.16511
G1 X112.012 Y80.296 E24.27447
G1 X114.63 Y80.569 E24.39122
G1 X117.459 Y81.16 E24.51941
G1 X119.289 Y81.698 E24.60401
G1 X120.948 Y82.296 E24.68223
G1 X122.965 Y83.183 E24.77996
G1 X125.021 Y84.275 E24.88322
G1 X128.58 Y86.715 E25.07462
G1 X130.742 Y88.621 E25.20246
G1 X132.729 Y90.767 E25.33218
G1 X133.92 Y92.249 E25.41651
G1 X135.496 Y94.611 E25.54246
G1 X136.277 Y95.969 E25.61194
G1 X136.854 Y97.129 E25.66941
G1 X138.201 Y100.421 E25.82718
G1 X139.075 Y103.582 E25.97265
G1 X139.591 Y106.644 E26.11038
G1 X139.763 Y108.843 E26.20821
G1 X139.769 Y110.409 E26.27767
G1 X139.551 Y113.699 E26.42392
G1 X138.866 Y117.315 E26.58716
G1 X138.47 Y117.481 F6000
;WIPE_START
G1 F4800
G1 X137.692 Y120.944 E24.77543
G1 X137.534 Y121.308 E24.58716
;WIPE_END
G92 E0
G1 X108.281 Y87.24 F6000
G1 E2 F2400
;TYPE:Perimeter
G1 F1800
G1 X107.997 Y87.023 E2.01585
G1 X107.621 Y86.593 E2.04119
G1 X107.349 Y86.118 E2.06547
G1 X107.154 Y85.553 E2.09198
G1 X107.081 Y84.984 E2.11742
G1 X107.119 Y84.414 E2.14276
G1 X107.27 Y83.861 E2.16819
G1 X107.524 Y83.348 E2.19358
G1 X107.874 Y82.894 E2.21901
G1 X108.305 Y82.519 E2.24435
G1 X108.803 Y82.233 E2.26982
G1 X109.344 Y82.051 E2.29514
G1 X109.905 Y81.978 E2.32023
G1 X110.484 Y82.017 E2.34597
G1 X111.037 Y82.167 E2.37138
G1 X111.549 Y82.421 E2.39673
G1 X112.003 Y82.772 E2.42218
G1 X112.379 Y83.202 E2.44752
G1 X112.664 Y83.701 E2.47301
G1 X112.846 Y84.242 E2.49833
G1 X112.92 Y84.809 E2.52369
G1 X112.88 Y85.383 E2.54921
G1 X112.73 Y85.934 E2.57454
G1 X112.476 Y86.447 E2.59993
G1 X112.126 Y86.901 E2.62536
G1 X111.647 Y87.313 E2.65338
G1 X111.197 Y87.562 E2.67619
G1 X110.656 Y87.744 E2.70151
G1 X110.087 Y87.817 E2.72695
G1 X109.517 Y87.778 E2.75229
G1 X108.963 Y87.628 E2.77775
G1 X108.47 Y87.384 E2.80215
G1 X108.328 Y87.276 E2.81006
G1 X108.475 Y86.954 F6000
G1 F1800
G1 X108.149 Y86.675 E2.82909
G1 X107.837 Y86.279 E2.85145
G1 X107.61 Y85.831 E2.87373
G1 X107.473 Y85.346 E2.89608
G1 X107.435 Y84.846 E2.91832
G1 X107.494 Y84.345 E2.9407
G1 X107.649 Y83.868 E2.96295
G1 X107.896 Y83.428 E2.98533
G1 X108.222 Y83.047 E3.00757
G1 X108.618 Y82.735 E3.02993
G1 X109.066 Y82.507 E3.05223
G1 X109.549 Y82.371 E3.07449
G1 X110.046 Y82.332 E3.0966
G1 X110.552 Y82.391 E3.1192
G1 X111.029 Y82.547 E3.14146
G1 X111.47 Y82.793 E3.16386
G1 X111.851 Y83.12 E3.18613
G1 X112.163 Y83.516 E3.20849
G1 X112.39 Y83.964 E3.23077
G1 X112.527 Y84.447 E3.25304
G1 X112.566 Y84.95 E3.27542
G1 X112.506 Y85.45 E3.29776
G1 X112.351 Y85.927 E3.32001
G1 X112.104 Y86.367 E3.34239
G1 X111.778 Y86.748 E3.36463
G1 X111.441 Y87.024 E3.38395
G1 X110.992 Y87.266 E3.40657
G1 X110.509 Y87.415 E3.42899
G1 X110 Y87.465 E3.45168
G1 X109.491 Y87.415 E3.47437
G1 X108.992 Y87.259 E3.49756
G1 X108.52 Y86.993 E3.52159
G1 X108.753 Y86.713 F6000
;TYPE:External perimeter
G1 F1800
G1 X108.424 Y86.449 E3.5403
G1 X108.151 Y86.112 E3.55954
G1 X107.947 Y85.719 E3.57918
G1 X107.827 Y85.312 E3.598
G1 X107.789 Y84.88 E3.61724
G1 X107.834 Y84.448 E3.6365
G1 X107.963 Y84.035 E3.65569
G1 X108.171 Y83.654 E3.67494
G1 X108.448 Y83.321 E3.69415
G1 X108.785 Y83.049 E3.71336
G1 X109.17 Y82.847 E3.73264
G1 X109.68 Y82.715 E3.75601
G1 X110.011 Y82.685 E3.77075
G1 X110.449 Y82.732 E3.79029
G1 X110.862 Y82.861 E3.80948
G1 X111.244 Y83.068 E3.82875
G1 X111.576 Y83.346 E3.84796
G1 X111.849 Y83.683 E3.8672
G1 X112.05 Y84.067 E3.88642
G1 X112.173 Y84.483 E3.90566
G1 X112.212 Y84.915 E3.9249
G1 X112.145 Y85.417 E3.94736
G1 X112.037 Y85.76 E3.96331
G1 X111.829 Y86.141 E3.98256
G1 X111.552 Y86.474 E4.00177
G1 X111.234 Y86.734 E4.01999
G1 X110.83 Y86.948 E4.04027
G1 X110.415 Y87.07 E4.05946
G1 X109.902 Y87.101 E4.08226
G1 X109.551 Y87.063 E4.09792
G1 X109.002 Y86.862 E4.12385
G1 X108.805 Y86.744 E4.13404
G1 X108.395 Y86.89 F6000
;WIPE_START
G1 F4800
G1 X108.424 Y86.449 E3.90516
G1 X108.151 Y86.112 E3.69915
G1 X107.947 Y85.719 E3.48882
G1 X107.827 Y85.312 E3.28727
G1 X107.789 Y84.88 E3.08128
G1 X107.834 Y84.448 E2.87497
G1 X107.963 Y84.035 E2.66945
G1 X108.171 Y83.654 E2.46326
G1 X108.448 Y83.321 E2.25751
G1 X108.65 Y83.158 E2.13404
;WIPE_END
G92 E0
G1 X110.052 Y131.988 F6000
G1 E2 F2400
;TYPE:Perimeter
G1 F1800
G1 X110.476 Y132.016 E2.01885
G1 X111.037 Y132.167 E2.04462
G1 X111.549 Y132.421 E2.06997
G1 X111.981 Y132.753 E2.09414
G1 X112.379 Y133.202 E2.12075
G1 X112.664 Y133.701 E2.14624
G1 X112.846 Y134.242 E2.17156
G1 X112.92 Y134.809 E2.19692
G1 X112.88 Y135.383 E2.22244
G1 X112.73 Y135.934 E2.24777
G1 X112.476 Y136.447 E2.27316
G1 X112.126 Y136.901 E2.29859
G1 X111.695 Y137.276 E2.32393
G1 X111.197 Y137.562 E2.3494
G1 X110.656 Y137.744 E2.37472
G1 X110.088 Y137.818 E2.40013
G1 X109.514 Y137.778 E2.42565
G1 X108.963 Y137.628 E2.45098
G1 X108.451 Y137.374 E2.47633
G1 X107.997 Y137.023 E2.50178
G1 X107.621 Y136.593 E2.52712
G1 X107.336 Y136.094 E2.55261
G1 X107.154 Y135.553 E2.57793
G1 X107.081 Y134.984 E2.60337
G1 X107.081 Y134.811 E2.61104
G1 X107.154 Y134.242 E2.63648
G1 X107.336 Y133.701 E2.6618
G1 X107.584 Y133.251 E2.68459
G1 X107.92 Y132.843 E2.70803
G1 X108.305 Y132.519 E2.73035
G1 X108.803 Y132.233 E2.75582
G1 X109.344 Y132.051 E2.78114
G1 X109.905 Y131.978 E2.80623
G1 X109.993 Y131.984 E2.81014
G1 X109.988 Y132.336 F6000
G1 F1800
G1 X110.547 Y132.39 E2.83505
G1 X111.028 Y132.546 E2.85748
G1 X111.47 Y132.793 E2.87994
G1 X111.851 Y133.12 E2.90221
G1 X112.163 Y133.516 E2.92457
G1 X112.39 Y133.964 E2.94685
G1 X112.527 Y134.447 E2.96912
G1 X112.566 Y134.95 E2.9915
G1 X112.506 Y135.45 E3.01384
G1 X112.351 Y135.927 E3.03609
G1 X112.104 Y136.367 E3.05847
G1 X111.778 Y136.748 E3.08071
G1 X111.382 Y137.06 E3.10307
G1 X110.934 Y137.288 E3.12537
G1 X110.45 Y137.424 E3.14767
G1 X109.947 Y137.464 E3.17005
G1 X109.448 Y137.404 E3.19234
G1 X108.971 Y137.248 E3.2146
G1 X108.53 Y137.002 E3.237
G1 X108.149 Y136.675 E3.25927
G1 X107.837 Y136.279 E3.28163
G1 X107.61 Y135.831 E3.30391
G1 X107.473 Y135.346 E3.32626
G1 X107.435 Y134.846 E3.3485
G1 X107.494 Y134.345 E3.37088
G1 X107.649 Y133.868 E3.39313
G1 X107.896 Y133.428 E3.41551
G1 X108.222 Y133.047 E3.43775
G1 X108.616 Y132.736 E3.46001
G1 X109.066 Y132.507 E3.48241
G1 X109.549 Y132.371 E3.50467
G1 X109.928 Y132.341 E3.52153
G1 X110.089 Y132.694 F6000
;TYPE:External perimeter
G1 F1800
G1 X110.449 Y132.732 E3.53759
G1 X110.862 Y132.861 E3.55678
G1 X111.244 Y133.068 E3.57605
G1 X111.576 Y133.346 E3.59526
G1 X111.849 Y133.683 E3.6145
G1 X112.05 Y134.067 E3.63372
G1 X112.173 Y134.483 E3.65296
G1 X112.212 Y134.915 E3.6722
G1 X112.166 Y135.347 E3.69147
G1 X112.037 Y135.76 E3.71066
G1 X111.829 Y136.141 E3.72991
G1 X111.552 Y136.474 E3.74912
G1 X111.215 Y136.746 E3.76833
G1 X110.83 Y136.948 E3.78761
G1 X110.415 Y137.07 E3.8068
G1 X109.982 Y137.11 E3.82609
G1 X109.551 Y137.063 E3.84532
G1 X109.138 Y136.934 E3.86451
G1 X108.756 Y136.727 E3.88378
G1 X108.424 Y136.449 E3.90299
G1 X108.151 Y136.112 E3.92223
G1 X107.95 Y135.728 E3.94145
G1 X107.827 Y135.312 E3.96069
G1 X107.789 Y134.88 E3.97993
G1 X107.834 Y134.448 E3.99919
