; generated by PrusaSlicer 2.7.1 on 2024-03-18 at 14:17:14 UTC

; 

; external perimeters extrusion width = 0.45mm
; perimeters extrusion width = 0.45mm
; infill extrusion width = 0.45mm
; solid infill extrusion width = 0.45mm
; top infill extrusion width = 0.40mm
; first layer extrusion width = 0.80mm

;TYPE:Custom
G28 ; home all axes
 M117 Purge extruder
 G92 E0 ; reset extruder
 G1 Z1.0 F3000 ; move z up little to prevent scratching of surface
 M104 S215 ; start nozzle pre-heating
 M190 S65 ; wait for bed to heat up
 M109 S215 ; start nozzle heating and wait
 G1 X2 Y20 Z0.3 F5000.0 ; move to start-line position
 G1 X2 Y200.0 Z0.3 F1500.0 E15 ; draw 1st line
 G1 X2 Y200.0 Z0.4 F5000.0 ; move to side a little
 G1 X2 Y20 Z0.4 F1500.0 E30 ; draw 2nd line
 G92 E0 ; reset extruder
 G1 Z1.0 F3000 ; move z up little to prevent scratching of surface
G21 ; set units to millimeters
G90 ; use absolute coordinates
M82 ; use absolute distances for extrusion
G92 E0
; Filament gcode
M107
;LAYER_CHANGE
;Z:0.4
;HEIGHT:0.4

G1 E-2 F2400
G92 E0
G1 Z.4 F6000
G1 X58.827 Y52.647
G1 E2 F2400
;TYPE:Skirt/Brim
;WIDTH:0.8
G1 F1800
G1 X59.859 Y51.757 E2.16185
G1 X60.916 Y51.12 E2.30842
G1 X64.111 Y50.312 E2.69982
G1 X124.146 Y50.312 E9.82989
G1 X156.793 Y50.47 E13.70726
G1 X159.275 Y50.958 E14.00768
G1 X160.906 Y51.803 E14.22584
G1 X162.545 Y53.238 E14.48456
G1 X163.996 Y55.751 E14.8292
G1 X173.371 Y85.461 E18.52922
G1 X173.58 Y86.303 E18.63225
G1 X173.712 Y87.631 E18.79075
G1 X173.714 Y143.944 E25.47877
G1 X173.532 Y145.518 E25.66695
G1 X173.013 Y147.125 E25.86751
G1 X172.808 Y147.561 E25.92473
G1 X171.483 Y149.452 E26.19896
G1 X170.542 Y150.237 E26.3445
G1 X144.253 Y168.37 E30.1374
G1 X143.044 Y169.032 E30.3011
G1 X141.689 Y169.466 E30.47008
G1 X140.016 Y169.67 E30.67025
G1 X79.984 Y169.676 E37.79996
G1 X78.983 Y169.633 E37.91895
G1 X76.407 Y168.97 E38.23486
G1 X75.269 Y168.313 E38.39092
G1 X49.514 Y149.935 E42.14862
G1 X47.828 Y148.207 E42.43535
G1 X47.02 Y146.791 E42.62897
G1 X46.526 Y145.357 E42.8091
G1 X46.292 Y143.599 E43.01973
G1 X46.284 Y87.36 E49.69896
G1 X46.657 Y85.153 E49.96479
G1 X56.957 Y55.543 E53.68812
G1 X58.004 Y53.607 E53.94952
G1 X58.788 Y52.693 E54.09253
;WIPE_START
G1 F4800
G1 X58.827 Y52.647 E54.06388
G1 X59.859 Y51.757 E53.41657
G1 X60.916 Y51.12 E52.83037
G1 X62.422 Y50.739 E52.09253
;WIPE_END
G92 E0
G1 Z.8 F6000
G1 X131.818 Y145.327
G1 Z.4
G1 E2 F2400
;TYPE:Perimeter
;WIDTH:0.8
G1 F1800
G1 X131.613 Y145.266 E2.0254
G1 X116.013 Y142.999 E3.8976
G1 X127.429 Y132.437 E5.7447
G1 X127.678 Y132.151 E5.78974
G1 X127.894 Y131.737 E5.8452
G1 X127.995 Y131.282 E5.90055
G1 X127.978 Y130.837 E5.95344
G1 X125.49 Y115.73 E7.77179
G1 X139.098 Y122.746 E9.59011
G1 X139.747 Y123.062 E9.67584
G1 X140.189 Y123.155 E9.72948
G1 X140.7 Y123.124 E9.79028
G1 X141.134 Y122.973 E9.84485
G1 X155.316 Y115.887 E11.72772
G1 X152.45 Y130.923 E13.54562
G1 X152.418 Y131.276 E13.58772
G1 X152.48 Y131.725 E13.64155
G1 X152.666 Y132.165 E13.69828
G1 X152.969 Y132.547 E13.75619
G1 X164.115 Y143.219 E15.58889
G1 X148.823 Y145.289 E17.42161
G1 X148.104 Y145.415 E17.5083
G1 X147.7 Y145.605 E17.56132
G1 X147.345 Y145.9 E17.61614
G1 X147.074 Y146.283 E17.67186
G1 X139.832 Y160.071 E19.52153
G1 X132.955 Y146.238 E21.35623
G1 X132.838 Y146.037 E21.38385
G1 X132.53 Y145.687 E21.43922
G1 X132.113 Y145.415 E21.49835
G1 X131.876 Y145.344 E21.52773
G1 X131.624 Y146.009 F6000
G1 F1800
G1 X131.51 Y145.973 E21.54193
G1 X114.43 Y143.491 E23.59174
G1 X126.944 Y131.913 E25.6165
G1 X127.125 Y131.693 E25.65033
G1 X127.268 Y131.332 E25.69645
G1 X127.273 Y130.953 E25.74147
G1 X124.555 Y114.444 E27.72856
G1 X139.845 Y122.328 E29.77167
G1 X140.102 Y122.422 E29.80417
G1 X140.453 Y122.441 E29.84592
G1 X140.815 Y122.334 E29.89075
G1 X156.288 Y114.603 E31.94502
G1 X153.151 Y131.057 E33.93438
G1 X153.135 Y131.334 E33.96733
G1 X153.236 Y131.717 E34.01437
G1 X153.463 Y132.032 E34.06048
G1 X165.68 Y143.728 E36.06916
G1 X148.511 Y146.052 E38.12683
G1 X148.226 Y146.131 E38.16195
G1 X147.929 Y146.325 E38.20408
G1 X147.706 Y146.615 E38.24753
G1 X139.814 Y161.64 E40.26316
G1 X132.316 Y146.556 E42.26373
G1 X132.149 Y146.312 E42.29885
G1 X131.854 Y146.084 E42.34313
G1 X131.681 Y146.028 E42.36473
G1 X131.408 Y146.679 F6000
;TYPE:External perimeter
G1 F1800
G1 X113.639 Y144.098 E44.49721
G1 X113.501 Y143.851 E44.53081
G1 X113.4 Y143.471 E44.57751
G1 X126.459 Y131.389 E46.69044
G1 X126.536 Y131.286 E46.70571
G1 X126.568 Y131.069 E46.73176
G1 X123.722 Y113.783 E48.81237
G1 X123.812 Y113.655 E48.83095
G1 X124.117 Y113.415 E48.87704
G1 X139.752 Y121.477 E50.96626
G1 X140.276 Y121.728 E51.03526
G1 X140.495 Y121.695 E51.06156
G1 X156.778 Y113.56 E53.22333
G1 X156.852 Y113.589 E53.23277
G1 X157.162 Y113.831 E53.27948
G1 X153.853 Y131.191 E55.37836
G1 X153.852 Y131.321 E55.3938
G1 X153.957 Y131.516 E55.4201
G1 X166.58 Y143.602 E57.49564
G1 X166.593 Y143.815 E57.52098
G1 X166.558 Y144.11 E57.55626
G1 X166.46 Y144.343 E57.58628
G1 X149.015 Y146.704 E59.67703
G1 X148.498 Y146.793 E59.73933
G1 X148.338 Y146.947 E59.7657
G1 X140.168 Y162.503 E61.85252
G1 X140.003 Y162.545 E61.87274
G1 X139.461 Y162.534 E61.93712
G1 X131.676 Y146.874 E64.01412
G1 X131.61 Y146.782 E64.02757
G1 X131.461 Y146.706 E64.04744
;WIPE_START
G1 F4800
G1 X131.408 Y146.679 E64.01919
G1 X127.3 Y146.082 E62.04744
;WIPE_END
G92 E0
G1 Z.8 F6000
G1 X133.112 Y145.518
G1 Z.4
G1 E2 F2400
;TYPE:Solid infill
G1 F1800
G1 X133.425 Y145.98 E2.06628
G1 X139.845 Y158.894 E3.77908
G1 X146.597 Y146.039 E5.50359
G1 X146.924 Y145.571 E5.5714
G1 X147.321 Y145.216 E5.63465
G1 X147.787 Y144.964 E5.69757
G1 X148.309 Y144.82 E5.76188
G1 X162.942 Y142.837 E7.51566
G1 X152.602 Y132.938 E9.21573
G1 X152.232 Y132.476 E9.28603
G1 X152.004 Y131.99 E9.34979
G1 X151.894 Y131.465 E9.4135
G1 X151.925 Y130.817 E9.49055
G1 X154.587 Y116.85 E11.1792
G1 X141.241 Y123.512 E12.95074
G1 X140.737 Y123.66 E13.01313
G1 X140.103 Y123.682 E13.08847
G1 X139.604 Y123.576 E13.14906
G1 X138.847 Y123.22 E13.24841
G1 X126.192 Y116.694 E14.93946
G1 X128.505 Y130.744 E16.63057
G1 X128.533 Y131.082 E16.67085
G1 X128.479 Y131.627 E16.73589
G1 X128.241 Y132.233 E16.81321
G1 X128.158 Y132.394 E16.83472
G1 X127.828 Y132.797 E16.89658
G1 X117.2 Y142.63 E18.61618
G1 X131.684 Y144.735 E20.35445
G1 X132.188 Y144.869 E20.41639
G1 X132.684 Y145.132 E20.48307
G1 X133.067 Y145.478 E20.54437
G1 X133.634 Y145.03 F6000
G1 F1800
G1 X134.065 Y145.663 E20.63532
G1 X139.862 Y157.325 E22.18204
G1 X145.965 Y145.707 E23.74065
G1 X146.34 Y145.159 E23.81951
G1 X146.857 Y144.674 E23.9037
G1 X147.457 Y144.33 E23.98584
G1 X148.133 Y144.128 E24.06963
G1 X161.378 Y142.328 E25.65713
G1 X152.108 Y133.454 E27.18122
G1 X151.672 Y132.92 E27.26309
G1 X151.533 Y132.689 E27.29511
G1 X151.325 Y132.217 E27.35637
G1 X151.192 Y131.598 E27.43156
G1 X151.223 Y130.684 E27.54017
G1 X153.616 Y118.133 E29.05764
G1 X141.56 Y124.151 E30.65795
G1 X140.93 Y124.347 E30.73631
G1 X140.561 Y124.388 E30.7804
G1 X140.018 Y124.393 E30.84489
G1 X139.441 Y124.272 E30.91491
G1 X138.969 Y124.085 E30.97521
G1 X127.127 Y117.98 E32.55753
G1 X129.21 Y130.628 E34.07991
G1 X129.244 Y131.152 E34.14227
G1 X129.19 Y131.698 E34.20743
G1 X129.111 Y132.009 E34.24554
G1 X128.867 Y132.586 E34.31994
G1 X128.713 Y132.843 E34.35552
G1 X128.307 Y133.326 E34.43046
G1 X118.783 Y142.139 E35.97155
G1 X131.787 Y144.028 E37.53218
G1 X132.375 Y144.18 E37.60431
G1 X132.96 Y144.468 E37.68175
G1 X133.253 Y144.672 E37.72415
G1 X133.59 Y144.989 E37.7791
G1 X134.089 Y144.476 F6000
G1 F1800
G1 X134.358 Y144.796 E37.82875
G1 X134.704 Y145.345 E37.90582
G1 X139.88 Y155.756 E39.28667
G1 X145.333 Y145.375 E40.67932
G1 X145.757 Y144.747 E40.76931
G1 X146.063 Y144.413 E40.82311
G1 X146.47 Y144.068 E40.88648
G1 X147.128 Y143.696 E40.97625
G1 X147.682 Y143.506 E41.04581
G1 X148.565 Y143.342 E41.15247
G1 X159.814 Y141.819 E42.50065
G1 X151.614 Y133.969 E43.84884
G1 X151.289 Y133.586 E43.9085
G1 X150.965 Y133.146 E43.9734
G1 X150.698 Y132.57 E44.0488
G1 X150.575 Y132.176 E44.09782
G1 X150.476 Y131.642 E44.16232
G1 X150.493 Y130.779 E44.26483
G1 X150.522 Y130.55 E44.29224
G1 X152.644 Y119.416 E45.63837
G1 X141.879 Y124.79 E47.06733
G1 X141.122 Y125.035 E47.16183
G1 X140.671 Y125.101 E47.21596
G1 X140.127 Y125.11 E47.28058
G1 X139.69 Y125.063 E47.33278
G1 X139.195 Y124.945 E47.39322
G1 X138.725 Y124.759 E47.45325
G1 X128.063 Y119.266 E48.8777
G1 X129.915 Y130.512 E50.23132
G1 X129.962 Y131.114 E50.30303
G1 X129.91 Y131.667 E50.369
G1 X129.813 Y132.169 E50.42972
G1 X129.557 Y132.788 E50.50927
G1 X129.344 Y133.191 E50.56341
G1 X128.967 Y133.664 E50.63525
G1 X128.792 Y133.851 E50.66567
G1 X120.366 Y141.647 E52.02901
G1 X131.89 Y143.321 E53.41202
G1 X132.562 Y143.491 E53.49434
G1 X132.967 Y143.655 E53.54623
G1 X133.455 Y143.929 E53.6127
G1 X134.043 Y144.437 E53.70499
G1 X134.656 Y144.032 F6000
G1 F1800
G1 X135.087 Y144.603 E53.78995
G1 X135.344 Y145.027 E53.84883
G1 X139.897 Y154.187 E55.0637
G1 X144.7 Y145.042 E56.29049
G1 X145.011 Y144.566 E56.35802
G1 X145.345 Y144.119 E56.42429
G1 X145.927 Y143.59 E56.5177
G1 X146.401 Y143.269 E56.58569
G1 X146.914 Y143.006 E56.65416
G1 X147.507 Y142.813 E56.72822
G1 X148.061 Y142.689 E56.79564
G1 X158.249 Y141.31 E58.01665
G1 X151.12 Y134.485 E59.18878
G1 X150.729 Y134.029 E59.26012
G1 X150.425 Y133.63 E59.31969
G1 X150.046 Y132.86 E59.42162
G1 X149.873 Y132.309 E59.49021
G1 X149.769 Y131.74 E59.55891
G1 X149.75 Y131.251 E59.61703
G1 X149.78 Y130.736 E59.6783
G1 X149.82 Y130.416 E59.7166
G1 X151.672 Y120.699 E60.89141
G1 X142.198 Y125.429 E62.14903
G1 X141.755 Y125.6 E62.20543
G1 X141.18 Y125.757 E62.27622
G1 X140.683 Y125.815 E62.33565
G1 X140.139 Y125.824 E62.40027
G1 X139.527 Y125.759 E62.47336
G1 X138.999 Y125.632 E62.53786
G1 X138.443 Y125.415 E62.60874
G1 X128.998 Y120.552 E63.87043
G1 X130.619 Y130.396 E65.0553
G1 X130.677 Y130.974 E65.12429
G1 X130.621 Y131.738 E65.21527
G1 X130.52 Y132.302 E65.28332
G1 X130.215 Y133.066 E65.38102
G1 X129.929 Y133.6 E65.45296
G1 X129.522 Y134.113 E65.53073
G1 X129.277 Y134.375 E65.57333
G1 X121.949 Y141.155 E66.75901
G1 X131.992 Y142.615 E67.96431
G1 X132.749 Y142.801 E68.05689
G1 X133.314 Y143.031 E68.12934
G1 X133.833 Y143.323 E68.20007
G1 X134.23 Y143.629 E68.2596
G1 X134.612 Y143.991 E68.3221
G1 X135.065 Y143.434 F6000
G1 F1800
G1 X135.492 Y143.923 E68.3992
G1 X135.788 Y144.37 E68.46287
G1 X135.983 Y144.709 E68.50932
G1 X139.915 Y152.618 E69.55831
G1 X144.068 Y144.71 E70.61914
G1 X144.428 Y144.154 E70.69781
G1 X144.811 Y143.645 E70.77346
G1 X145.462 Y143.048 E70.87836
G1 X145.897 Y142.733 E70.94215
G1 X146.47 Y142.429 E71.01919
G1 X146.96 Y142.222 E71.08236
G1 X147.606 Y142.051 E71.16172
G1 X148.373 Y141.927 E71.254
G1 X156.685 Y140.802 E72.25018
G1 X150.626 Y135.001 E73.24641
G1 X150.169 Y134.473 E73.32934
G1 X149.829 Y134.023 E73.39632
G1 X149.575 Y133.561 E73.45894
G1 X149.352 Y133.053 E73.52483
G1 X149.172 Y132.442 E73.60048
G1 X149.061 Y131.837 E73.67353
G1 X149.037 Y131.209 E73.74817
G1 X149.067 Y130.694 E73.80944
G1 X149.119 Y130.282 E73.85876
G1 X150.701 Y121.982 E74.86226
G1 X142.517 Y126.068 E75.94864
G1 X141.947 Y126.287 E76.02116
G1 X141.333 Y126.454 E76.09673
G1 X140.695 Y126.529 E76.17302
G1 X140.151 Y126.538 E76.23764
G1 X139.546 Y126.491 E76.30971
G1 X139.052 Y126.381 E76.36982
G1 X138.416 Y126.181 E76.449
G1 X137.957 Y125.975 E76.50875
G1 X129.934 Y121.838 E77.58082
G1 X131.324 Y130.28 E78.59694
G1 X131.385 Y130.845 E78.66443
G1 X131.376 Y131.364 E78.72608
G1 X131.322 Y131.91 E78.79124
G1 X131.205 Y132.504 E78.86314
G1 X130.872 Y133.344 E78.97046
G1 X130.626 Y133.838 E79.036
G1 X130.077 Y134.562 E79.14391
G1 X129.762 Y134.899 E79.1987
G1 X123.532 Y140.664 E80.20679
G1 X132.095 Y141.908 E81.23445
G1 X132.937 Y142.112 E81.33734
G1 X133.515 Y142.33 E81.41071
G1 X134.001 Y142.596 E81.47651
G1 X134.475 Y142.901 E81.54345
G1 X135.021 Y143.394 E81.63082
G1 X135.677 Y143.034 F6000
G1 F1800
G1 X136.075 Y143.511 E81.7046
G1 X136.385 Y143.977 E81.77107
G1 X136.623 Y144.391 E81.82778
G1 X139.932 Y151.048 E82.71069
G1 X143.436 Y144.378 E83.60551
G1 X143.706 Y143.937 E83.66692
G1 X144.008 Y143.51 E83.72903
G1 X144.405 Y143.033 E83.80274
G1 X144.997 Y142.505 E83.89695
G1 X145.435 Y142.179 E83.9618
G1 X146.14 Y141.795 E84.05714
G1 X146.739 Y141.543 E84.13432
G1 X147.431 Y141.359 E84.21936
G1 X148.277 Y141.219 E84.3212
G1 X155.121 Y140.293 E85.14143
G1 X150.132 Y135.517 E85.96169
G1 X149.77 Y135.119 E86.02559
G1 X149.433 Y134.694 E86.09001
G1 X149.108 Y134.215 E86.15876
G1 X148.74 Y133.44 E86.26065
G1 X148.517 Y132.792 E86.34204
G1 X148.386 Y132.13 E86.42219
G1 X148.319 Y131.517 E86.49543
G1 X148.354 Y130.652 E86.59825
G1 X148.417 Y130.149 E86.65846
G1 X149.729 Y123.266 E87.49064
G1 X142.836 Y126.707 E88.40562
G1 X142.302 Y126.926 E88.47417
G1 X141.7 Y127.098 E88.54853
G1 X141.122 Y127.214 E88.61855
G1 X140.085 Y127.253 E88.7418
G1 X139.424 Y127.195 E88.82061
G1 X138.889 Y127.076 E88.8857
G1 X138.379 Y126.933 E88.94861
G1 X137.879 Y126.727 E89.01284
G1 X130.869 Y123.124 E89.94891
G1 X132.029 Y130.164 E90.79629
G1 X132.098 Y130.8 E90.87227
G1 X132.087 Y131.435 E90.9477
G1 X132.032 Y131.981 E91.01287
G1 X131.938 Y132.532 E91.07926
G1 X131.742 Y133.12 E91.15287
G1 X131.499 Y133.697 E91.22723
G1 X131.236 Y134.209 E91.29559
G1 X130.934 Y134.639 E91.358
G1 X130.483 Y135.186 E91.4422
G1 X130.247 Y135.423 E91.48192
G1 X125.115 Y140.172 E92.31235
G1 X132.198 Y141.201 E93.16239
G1 X133.124 Y141.423 E93.27548
G1 X133.625 Y141.596 E93.33843
G1 X134.349 Y141.972 E93.43532
G1 X134.818 Y142.265 E93.501
G1 X135.206 Y142.587 E93.56088
G1 X135.634 Y142.993 E93.63094
G1 X136.188 Y142.535 F6000
G1 F1800
G1 X136.658 Y143.099 E93.71813
G1 X136.981 Y143.584 E93.78734
G1 X137.235 Y144.02 E93.84727
G1 X139.95 Y149.479 E94.57137
G1 X142.804 Y144.046 E95.30023
G1 X143.062 Y143.613 E95.36009
G1 X143.425 Y143.098 E95.43492
G1 X143.742 Y142.698 E95.49554
G1 X144.193 Y142.254 E95.5707
G1 X144.637 Y141.876 E95.63995
G1 X145.05 Y141.578 E95.70044
G1 X145.811 Y141.161 E95.8035
G1 X146.518 Y140.864 E95.89457
G1 X147.255 Y140.667 E95.98517
G1 X147.774 Y140.566 E96.04797
G1 X153.556 Y139.784 E96.74092
G1 X149.639 Y136.033 E97.38503
G1 X149.211 Y135.563 E97.46053
G1 X148.873 Y135.137 E97.52511
G1 X148.489 Y134.571 E97.60634
G1 X148.088 Y133.73 E97.71699
G1 X147.897 Y133.222 E97.78145
G1 X147.768 Y132.708 E97.84439
G1 X147.646 Y132.032 E97.92597
G1 X147.603 Y131.338 E98.00855
G1 X147.641 Y130.61 E98.09513
G1 X147.715 Y130.015 E98.16634
G1 X148.757 Y124.549 E98.8272
G1 X143.154 Y127.346 E99.57095
G1 X142.524 Y127.605 E99.65185
G1 X141.892 Y127.786 E99.72993
G1 X141.21 Y127.923 E99.81255
G1 X140.621 Y127.959 E99.88263
G1 X140.083 Y127.967 E99.94653
G1 X139.539 Y127.933 E100.01126
G1 X139.039 Y127.845 E100.07156
G1 X138.411 Y127.692 E100.14833
G1 X137.852 Y127.493 E100.2188
G1 X137.303 Y127.245 E100.29035
G1 X131.805 Y124.41 E101.02502
G1 X132.733 Y130.048 E101.70363
G1 X132.796 Y130.573 E101.76643
G1 X132.817 Y131.223 E101.84367
G1 X132.753 Y131.95 E101.93035
G1 X132.682 Y132.469 E101.99256
G1 X132.516 Y133.094 E102.06936
G1 X132.188 Y133.9 E102.17271
G1 X131.847 Y134.58 E102.26306
G1 X131.49 Y135.088 E102.3368
G1 X131.011 Y135.667 E102.42605
G1 X130.732 Y135.947 E102.47299
G1 X126.698 Y139.68 E103.12575
G1 X132.3 Y140.494 E103.79806
G1 X132.85 Y140.609 E103.86479
G1 X133.627 Y140.832 E103.9608
G1 X134.144 Y141.048 E104.02735
G1 X134.696 Y141.348 E104.10196
G1 X135.238 Y141.687 E104.17788
G1 X135.685 Y142.057 E104.2468
G1 X136.145 Y142.494 E104.32215
G1 X136.531 Y141.871 F6000
G1 F1800
G1 X137.056 Y142.44 E104.4141
G1 X137.471 Y143.031 E104.49987
G1 X137.871 Y143.694 E104.59183
G1 X139.967 Y147.91 E105.15101
G1 X142.171 Y143.714 E105.71391
G1 X142.47 Y143.214 E105.7831
G1 X142.841 Y142.686 E105.85974
G1 X143.208 Y142.224 E105.92981
G1 X143.728 Y141.712 E106.01648
G1 X144.188 Y141.321 E106.08818
G1 X144.665 Y140.977 E106.15803
G1 X145.482 Y140.528 E106.26875
G1 X145.993 Y140.295 E106.33545
G1 X146.639 Y140.087 E106.41605
G1 X147.25 Y139.934 E106.49086
G1 X148.086 Y139.803 E106.59136
G1 X151.992 Y139.275 E107.05948
