; generated by PrusaSlicer 2.7.1 on 2024-03-24 at 08:38:05 UTC

; 

; external perimeters extrusion width = 0.45mm
; perimeters extrusion width = 0.45mm
; infill extrusion width = 0.45mm
; solid infill extrusion width = 0.45mm
; top infill extrusion width = 0.40mm
; first layer extrusion width = 0.60mm

;TYPE:Custom
G28 ; home all axes
 M117 Purge extruder
 G92 E0 ; reset extruder
 G1 Z1.0 F3000 ; move z up little to prevent scratching of surface
 M104 S210 ; start nozzle pre-heating
 M190 S65 ; wait for bed to heat up
 M109 S210 ; start nozzle heating and wait
 G1 X2 Y20 Z0.3 F5000.0 ; move to start-line position
 G1 X2 Y200.0 Z0.3 F1500.0 E15 ; draw 1st line
 G1 X2 Y200.0 Z0.4 F5000.0 ; move to side a little
 G1 X2 Y20 Z0.4 F1500.0 E30 ; draw 2nd line
 G92 E0 ; reset extruder
 G1 Z1.0 F3000 ; move z up little to prevent scratching of surface
G21 ; set units to millimeters
G90 ; use absolute coordinates
M82 ; use absolute distances for extrusion
G92 E0
; Filament gcode
M107
;LAYER_CHANGE
;Z:0.3
;HEIGHT:0.3

G1 E-2 F2400
G92 E0
G1 Z.3 F6000
G1 X50.171 Y55.128
G1 E2 F2400
;TYPE:Skirt/Brim
;WIDTH:0.6
G1 F1800
G1 X52.233 Y53.252 E2.18623
G1 X55.007 Y51.177 E2.41766
G1 X58.521 Y49.056 E2.69186
G1 X62.938 Y47.088 E3.0149
G1 X66.074 Y46.107 E3.23441
G1 X70.035 Y45.326 E3.50412
G1 X74.455 Y45.018 E3.80012
G1 X145.603 Y45.018 E8.55319
G1 X150.022 Y45.326 E8.84912
G1 X153.981 Y46.106 E9.11869
G1 X157.118 Y47.087 E9.33827
G1 X161.536 Y49.056 E9.6614
G1 X165.05 Y51.177 E9.9356
G1 X167.824 Y53.252 E10.16703
G1 X171.403 Y56.56 E10.49261
G1 X174.19 Y59.758 E10.776
G1 X176.362 Y62.748 E11.02289
G1 X178.892 Y67.002 E11.35354
G1 X180.774 Y70.976 E11.64729
G1 X182.328 Y75.141 E11.94427
G1 X183.542 Y79.454 E12.2436
G1 X184.328 Y83.368 E12.5103
G1 X184.623 Y86.059 E12.69115
G1 X184.623 Y167.956 E18.16231
G1 X183.87 Y171.001 E18.37186
G1 X183.304 Y171.911 E18.44345
G1 X182.486 Y172.856 E18.52695
G1 X181.541 Y173.63 E18.60855
G1 X180.249 Y174.331 E18.70675
G1 X178.77 Y174.763 E18.80968
G1 X177.585 Y174.873 E18.88918
G1 X113.525 Y174.987 E23.16874
G1 X42.366 Y174.987 E27.92255
G1 X41.177 Y174.879 E28.00231
G1 X39.782 Y174.482 E28.0992
G1 X38.496 Y173.81 E28.19613
G1 X37.453 Y172.97 E28.2856
G1 X36.759 Y172.191 E28.3553
G1 X35.706 Y170.171 E28.50748
G1 X35.404 Y168.207 E28.64023
G1 X35.45 Y85.538 E34.16297
G1 X35.729 Y83.368 E34.30913
G1 X36.64 Y78.941 E34.61107
G1 X37.729 Y75.141 E34.87515
G1 X39.283 Y70.976 E35.17213
G1 X41.165 Y67.002 E35.46588
G1 X43.364 Y63.251 E35.75635
G1 X46.258 Y59.27 E36.08515
G1 X49.111 Y56.093 E36.37041
G1 X50.127 Y55.168 E36.4622
;WIPE_START
G1 F4800
G1 X50.171 Y55.128 E36.43395
G1 X52.233 Y53.252 E35.1098
G1 X53.325 Y52.435 E34.4622
;WIPE_END
G92 E0
G1 Z.7 F6000
G1 X175.796 Y162.945
G1 Z.3
G1 E2 F2400
;TYPE:Perimeter
;WIDTH:0.6
G1 F1800
G1 X173.944 Y160.783 E2.19018
G1 X171.914 Y158.88 E2.37607
G1 X169.741 Y157.204 E2.5594
G1 X167.876 Y156.016 E2.70712
G1 X167.14 Y155.556 E2.7651
G1 X164.442 Y154.161 E2.96801
G1 X161.568 Y152.962 E3.17605
G1 X158.643 Y151.995 E3.38186
G1 X155.406 Y151.185 E3.60478
G1 X152.174 Y150.622 E3.82395
G1 X149.121 Y150.305 E4.029
G1 X148.881 Y150.284 E4.04509
G1 X145.649 Y150.173 E4.26113
G1 X142.232 Y150.29 E4.48954
G1 X138.938 Y150.635 E4.7108
G1 X135.799 Y151.185 E4.9237
G1 X132.562 Y151.995 E5.14662
G1 X129.637 Y152.962 E5.35243
G1 X126.764 Y154.161 E5.56041
G1 X123.964 Y155.613 E5.77112
G1 X121.565 Y157.133 E5.96085
G1 X119.29 Y158.88 E6.15247
G1 X117.163 Y160.886 E6.34779
G1 X115.41 Y162.943 E6.52834
G1 X116.462 Y159.271 E6.78352
G1 X117.804 Y155.73 E7.0365
G1 X119.414 Y152.376 E7.28504
G1 X121.277 Y149.241 E7.52866
G1 X123.373 Y146.355 E7.76694
G1 X125.68 Y143.746 E7.9996
G1 X128.174 Y141.437 E8.22665
G1 X130.831 Y139.45 E8.4483
G1 X133.623 Y137.802 E8.66489
G1 X136.523 Y136.507 E8.87706
G1 X139.504 Y135.574 E9.08573
G1 X142.54 Y135.013 E9.29198
G1 X145.603 Y134.825 E9.49699
G1 X148.665 Y135.013 E9.70193
G1 X151.7 Y135.574 E9.90812
G1 X154.682 Y136.507 E10.11686
G1 X157.582 Y137.802 E10.32903
G1 X160.374 Y139.45 E10.54562
G1 X163.031 Y141.437 E10.76727
G1 X165.525 Y143.746 E10.99432
G1 X167.832 Y146.355 E11.22698
G1 X169.928 Y149.241 E11.46526
G1 X171.791 Y152.376 E11.70888
G1 X173.401 Y155.73 E11.95742
G1 X174.743 Y159.271 E12.2104
G1 X175.78 Y162.887 E12.46171
;WIPE_START
G1 F4800
G1 X175.796 Y162.945 E12.43313
G1 X173.944 Y160.783 E11.08091
G1 X172.993 Y159.892 E10.46171
;WIPE_END
G92 E0
G1 Z.7 F6000
G1 X176.86 Y165.517
G1 Z.3
G1 E2 F2400
G1 F1800
G1 X176.741 Y165.296 E2.01677
G1 X175.3 Y163.177 E2.18796
G1 X173.577 Y161.173 E2.36452
G1 X171.647 Y159.356 E2.5416
G1 X169.353 Y157.585 E2.73521
G1 X166.894 Y156.031 E2.92954
G1 X164.235 Y154.655 E3.12955
G1 X161.4 Y153.47 E3.33482
G1 X158.475 Y152.503 E3.54063
G1 X155.314 Y151.712 E3.75831
G1 X152.119 Y151.155 E3.97497
G1 X149.066 Y150.838 E4.18002
G1 X145.63 Y150.708 E4.40973
G1 X142.287 Y150.823 E4.63319
G1 X139.031 Y151.163 E4.85189
G1 X135.891 Y151.712 E5.06484
G1 X132.73 Y152.503 E5.28252
G1 X129.805 Y153.47 E5.48833
G1 X126.911 Y154.683 E5.69796
G1 X124.311 Y156.031 E5.89361
G1 X121.852 Y157.585 E6.08794
G1 X119.557 Y159.356 E6.2816
G1 X117.569 Y161.235 E6.46434
G1 X115.904 Y163.177 E6.63523
G1 X114.464 Y165.297 E6.80644
G1 X114.345 Y165.517 E6.82315
G1 X114.883 Y162.836 E7.00583
G1 X115.953 Y159.102 E7.26532
G1 X117.311 Y155.519 E7.5213
G1 X118.942 Y152.123 E7.77298
G1 X120.829 Y148.946 E8.01984
G1 X122.955 Y146.02 E8.26146
G1 X125.297 Y143.371 E8.49767
G1 X127.831 Y141.025 E8.72836
G1 X130.534 Y139.004 E8.95383
G1 X133.377 Y137.325 E9.17441
G1 X136.334 Y136.005 E9.39074
G1 X139.375 Y135.054 E9.6036
G1 X142.475 Y134.48 E9.81422
G1 X145.603 Y134.288 E10.02358
G1 X148.731 Y134.48 E10.23294
G1 X151.829 Y135.054 E10.44343
G1 X154.872 Y136.005 E10.65641
G1 X157.829 Y137.325 E10.87274
G1 X160.671 Y139.004 E11.09326
G1 X163.374 Y141.025 E11.31873
G1 X165.908 Y143.371 E11.54942
G1 X168.25 Y146.02 E11.78563
G1 X170.376 Y148.946 E12.02725
G1 X172.263 Y152.123 E12.27411
G1 X173.894 Y155.519 E12.52579
G1 X175.252 Y159.102 E12.78177
G1 X176.322 Y162.836 E13.04126
G1 X176.849 Y165.458 E13.21993
;WIPE_START
G1 F4800
G1 X176.86 Y165.517 E13.19142
G1 X176.741 Y165.296 E13.07219
G1 X175.3 Y163.177 E11.85498
G1 X174.428 Y162.163 E11.21993
;WIPE_END
G92 E0
G1 Z.7 F6000
G1 X177.53 Y168.024
G1 Z.3
G1 E2 F2400
;TYPE:External perimeter
G1 F1800
G1 X176.297 Y165.597 E2.18186
G1 X174.894 Y163.525 E2.34903
G1 X173.21 Y161.563 E2.52176
G1 X171.26 Y159.729 E2.70059
G1 X169.066 Y158.037 E2.88568
G1 X166.647 Y156.506 E3.07693
G1 X164.028 Y155.149 E3.27398
G1 X161.232 Y153.979 E3.47646
G1 X158.307 Y153.012 E3.68227
G1 X155.221 Y152.24 E3.89478
G1 X152.064 Y151.688 E4.10888
G1 X149.011 Y151.371 E4.31393
G1 X145.593 Y151.243 E4.54243
G1 X142.361 Y151.354 E4.75847
G1 X139.957 Y151.603 E4.91993
G1 X139.123 Y151.69 E4.97595
G1 X135.965 Y152.244 E5.19014
G1 X132.899 Y153.012 E5.40129
G1 X129.973 Y153.979 E5.60716
G1 X127.177 Y155.149 E5.80964
G1 X124.557 Y156.506 E6.00675
G1 X122.139 Y158.038 E6.19798
G1 X119.944 Y159.729 E6.38309
G1 X117.976 Y161.584 E6.56376
G1 X116.292 Y163.55 E6.73669
G1 X114.891 Y165.625 E6.90395
G1 X113.8 Y167.756 E7.06388
G1 X113.673 Y168.104 E7.08863
G1 X113.52 Y168.141 E7.09915
G1 X113.404 Y168.088 E7.10767
G1 X113.581 Y166.599 E7.20784
G1 X114.362 Y162.709 E7.4729
G1 X115.445 Y158.933 E7.73533
G1 X116.819 Y155.307 E7.99437
G1 X118.469 Y151.87 E8.24907
G1 X120.381 Y148.651 E8.49919
G1 X122.537 Y145.684 E8.74421
G1 X124.913 Y142.996 E8.98388
G1 X127.488 Y140.613 E9.21826
G1 X130.236 Y138.557 E9.44754
G1 X133.13 Y136.848 E9.67207
G1 X136.144 Y135.503 E9.89256
G1 X139.246 Y134.533 E10.10969
G1 X142.409 Y133.947 E10.32459
G1 X145.603 Y133.752 E10.53836
G1 X148.796 Y133.947 E10.75207
G1 X151.958 Y134.533 E10.96691
G1 X155.061 Y135.503 E11.1841
G1 X158.075 Y136.848 E11.40459
G1 X160.969 Y138.557 E11.62912
G1 X163.717 Y140.613 E11.8584
G1 X166.292 Y142.996 E12.09278
G1 X168.668 Y145.684 E12.33245
G1 X170.824 Y148.651 E12.57747
G1 X172.736 Y151.87 E12.82759
G1 X174.387 Y155.307 E13.08232
G1 X175.761 Y158.933 E13.34136
G1 X176.843 Y162.709 E13.60377
G1 X177.626 Y166.614 E13.86984
G1 X177.775 Y167.87 E13.95434
G1 X177.704 Y167.962 E13.9621
G1 X177.586 Y168.004 E13.97047
;WIPE_START
G1 F4800
G1 X177.53 Y168.024 E13.94222
G1 X176.297 Y165.597 E12.64915
G1 X175.496 Y164.414 E11.97047
;WIPE_END
G92 E0
G1 Z.7 F6000
G1 X145.593 Y149.77
G1 Z.3
G1 E2 F2400
;TYPE:Solid infill
G1 F1800
G1 X149.163 Y149.906 E2.23867
G1 X152.229 Y150.225 E2.4446
G1 X155.47 Y150.788 E2.66436
G1 X158.659 Y151.582 E2.88391
G1 X161.806 Y152.622 E3.10533
G1 X164.711 Y153.844 E3.31587
G1 X165.345 Y154.172 E3.36356
G1 X167.32 Y155.196 E3.51218
G1 X169.849 Y156.79 E3.71189
G1 X172.295 Y158.678 E3.91831
G1 X174.214 Y160.486 E4.09445
G1 X174.82 Y161.182 E4.1561
G1 X174.853 Y161.188 E4.15834
G1 X174.362 Y159.398 E4.28234
G1 X173.032 Y155.888 E4.5331
G1 X171.436 Y152.566 E4.77931
G1 X169.592 Y149.462 E5.02051
G1 X167.518 Y146.607 E5.25625
G1 X165.237 Y144.027 E5.48631
G1 X162.773 Y141.746 E5.71062
G1 X160.151 Y139.785 E5.92935
G1 X157.398 Y138.159 E6.14295
G1 X154.54 Y136.883 E6.35204
G1 X151.603 Y135.965 E6.55761
G1 X148.616 Y135.412 E6.76055
G1 X145.603 Y135.227 E6.96221
G1 X142.589 Y135.412 E7.16394
G1 X139.601 Y135.965 E7.36694
G1 X136.666 Y136.883 E7.57238
G1 X133.807 Y138.159 E7.78154
G1 X131.054 Y139.785 E7.99514
G1 X128.432 Y141.746 E8.21387
G1 X125.968 Y144.027 E8.43818
G1 X123.687 Y146.607 E8.66824
G1 X121.613 Y149.462 E8.90398
G1 X119.769 Y152.566 E9.14518
G1 X118.174 Y155.888 E9.39136
G1 X116.844 Y159.398 E9.64212
G1 X116.333 Y161.178 E9.76584
G1 X116.385 Y161.182 E9.76932
G1 X116.972 Y160.506 E9.82913
G1 X118.909 Y158.678 E10.00706
G1 X121.356 Y156.79 E10.21353
G1 X123.885 Y155.196 E10.41324
G1 X126.594 Y153.797 E10.61692
G1 X129.38 Y152.629 E10.81873
G1 X132.546 Y151.582 E11.0415
G1 X135.735 Y150.788 E11.26105
G1 X138.976 Y150.225 E11.48081
G1 X142.186 Y149.891 E11.69641
G1 X145.533 Y149.773 E11.92015
G1 X145.574 Y149.235 F6000
G1 F1800
G1 X149.218 Y149.373 E12.16376
G1 X152.321 Y149.697 E12.37218
G1 X155.562 Y150.26 E12.59194
G1 X158.769 Y151.056 E12.81269
G1 X161.974 Y152.114 E13.03817
G1 X164.919 Y153.35 E13.25154
G1 X167.567 Y154.721 E13.45074
G1 X170.197 Y156.38 E13.65847
G1 X172.602 Y158.237 E13.86146
G1 X173.76 Y159.322 E13.96747
G1 X172.539 Y156.1 E14.19765
G1 X170.964 Y152.819 E14.44078
G1 X169.144 Y149.757 E14.67874
G1 X167.1 Y146.942 E14.91114
G1 X164.854 Y144.402 E15.13765
G1 X162.43 Y142.158 E15.35832
G1 X159.853 Y140.231 E15.57329
G1 X157.152 Y138.636 E15.78284
G1 X154.35 Y137.385 E15.98784
G1 X151.474 Y136.486 E16.18914
G1 X148.551 Y135.945 E16.38773
G1 X145.603 Y135.764 E16.58504
G1 X142.654 Y135.945 E16.78242
G1 X139.73 Y136.486 E16.98107
G1 X136.855 Y137.385 E17.18231
G1 X134.053 Y138.636 E17.38731
G1 X131.352 Y140.231 E17.59686
G1 X128.775 Y142.158 E17.81183
G1 X126.352 Y144.402 E18.03245
G1 X124.105 Y146.942 E18.259
G1 X122.061 Y149.757 E18.4914
G1 X120.241 Y152.819 E18.72936
G1 X118.666 Y156.1 E18.97249
G1 X117.445 Y159.322 E19.20267
G1 X118.602 Y158.237 E19.30863
G1 X121.008 Y156.38 E19.51167
G1 X123.579 Y154.754 E19.71489
G1 X126.348 Y153.321 E19.92318
G1 X129.231 Y152.114 E20.13198
G1 X132.378 Y151.073 E20.35342
G1 X135.643 Y150.26 E20.5782
G1 X138.884 Y149.697 E20.79796
G1 X142.131 Y149.358 E21.01606
G1 X145.514 Y149.237 E21.24221
G1 X145.555 Y148.7 F6000
G1 F1800
G1 X149.039 Y148.819 E21.4751
G1 X152.413 Y149.169 E21.70171
G1 X155.748 Y149.753 E21.9279
G1 X158.996 Y150.565 E22.15156
G1 X162.142 Y151.605 E22.37292
G1 X165.127 Y152.857 E22.58916
G1 X165.839 Y153.221 E22.64258
G1 X167.813 Y154.245 E22.79114
G1 X170.42 Y155.883 E22.99683
G1 X172.485 Y157.47 E23.17082
G1 X172.046 Y156.311 E23.25362
G1 X170.491 Y153.073 E23.49359
G1 X168.696 Y150.052 E23.72835
G1 X166.682 Y147.278 E23.95736
G1 X164.47 Y144.777 E24.18041
G1 X162.087 Y142.57 E24.39739
G1 X159.556 Y140.677 E24.60854
G1 X156.906 Y139.112 E24.81414
G1 X154.16 Y137.887 E25.01501
G1 X151.345 Y137.007 E25.21204
G1 X148.485 Y136.477 E25.40636
G1 X145.603 Y136.301 E25.59925
G1 X142.72 Y136.477 E25.79221
G1 X139.859 Y137.007 E25.98659
G1 X137.045 Y137.887 E26.18356
G1 X134.299 Y139.112 E26.38443
G1 X131.649 Y140.677 E26.59003
G1 X129.118 Y142.57 E26.80118
G1 X126.735 Y144.777 E27.01816
G1 X124.524 Y147.278 E27.24117
G1 X122.509 Y150.052 E27.47022
G1 X120.714 Y153.073 E27.70498
G1 X119.159 Y156.311 E27.94495
G1 X118.72 Y157.469 E28.02768
G1 X120.785 Y155.884 E28.20159
G1 X123.293 Y154.301 E28.39972
G1 X126.102 Y152.845 E28.61109
G1 X129.063 Y151.605 E28.82555
G1 X132.209 Y150.565 E29.04691
G1 X135.457 Y149.753 E29.27057
G1 X138.792 Y149.169 E29.49676
G1 X142.076 Y148.825 E29.71735
G1 X145.495 Y148.702 E29.94591
G1 X145.537 Y148.165 F6000
G1 F1800
G1 X149.057 Y148.284 E30.1812
G1 X152.504 Y148.642 E30.41272
G1 X155.877 Y149.233 E30.64149
G1 X159.164 Y150.056 E30.86786
G1 X162.31 Y151.096 E31.08922
G1 X165.334 Y152.363 E31.30825
G1 X168.06 Y153.77 E31.51319
G1 X170.706 Y155.43 E31.72186
G1 X171.211 Y155.81 E31.76408
G1 X170.019 Y153.326 E31.94814
G1 X168.248 Y150.346 E32.17972
G1 X166.263 Y147.614 E32.40532
G1 X164.086 Y145.152 E32.62487
G1 X161.743 Y142.983 E32.83817
G1 X159.259 Y141.124 E33.04544
G1 X156.66 Y139.589 E33.24709
G1 X153.97 Y138.389 E33.44387
G1 X151.216 Y137.528 E33.63663
G1 X148.42 Y137.01 E33.8266
G1 X145.603 Y136.837 E34.01515
G1 X142.785 Y137.01 E34.20376
G1 X139.989 Y137.528 E34.39373
G1 X137.235 Y138.389 E34.58649
G1 X134.546 Y139.589 E34.78321
G1 X131.947 Y141.124 E34.98486
G1 X129.462 Y142.983 E35.19218
G1 X127.119 Y145.152 E35.40548
G1 X124.942 Y147.614 E35.62503
G1 X122.957 Y150.346 E35.85063
G1 X121.187 Y153.326 E36.08218
G1 X119.994 Y155.81 E36.26627
G1 X120.499 Y155.431 E36.30845
G1 X123.007 Y153.848 E36.50658
G1 X125.857 Y152.37 E36.72106
G1 X128.895 Y151.096 E36.94114
G1 X132.041 Y150.056 E37.1625
G1 X135.328 Y149.233 E37.38887
G1 X138.701 Y148.642 E37.61764
G1 X142.02 Y148.293 E37.84059
G1 X145.477 Y148.167 E38.07169
G1 X145.518 Y147.629 F6000
G1 F1800
G1 X149.076 Y147.749 E38.30952
G1 X152.432 Y148.091 E38.53488
G1 X155.837 Y148.677 E38.7657
G1 X159.158 Y149.497 E38.99422
G1 X162.478 Y150.588 E39.22768
G1 X165.542 Y151.869 E39.44954
G1 X168.307 Y153.294 E39.65734
G1 X169.881 Y154.277 E39.78131
G1 X169.546 Y153.579 E39.83303
G1 X167.801 Y150.641 E40.06131
G1 X165.845 Y147.949 E40.28361
G1 X163.703 Y145.526 E40.49966
G1 X161.4 Y143.395 E40.70927
G1 X158.961 Y141.57 E40.91277
G1 X156.413 Y140.066 E41.11043
G1 X153.781 Y138.891 E41.30299
G1 X151.086 Y138.048 E41.49163
G1 X148.355 Y137.543 E41.67717
G1 X145.603 Y137.374 E41.86136
G1 X142.85 Y137.543 E42.04562
G1 X140.118 Y138.048 E42.23122
G1 X137.425 Y138.891 E42.41974
G1 X134.792 Y140.066 E42.61236
G1 X132.244 Y141.57 E42.81002
G1 X129.805 Y143.395 E43.01352
G1 X127.502 Y145.526 E43.22313
G1 X125.36 Y147.949 E43.43918
G1 X123.405 Y150.641 E43.66144
G1 X121.659 Y153.579 E43.88976
G1 X121.324 Y154.277 E43.94148
G1 X122.902 Y153.292 E44.06575
G1 X125.786 Y151.812 E44.28231
G1 X128.727 Y150.588 E44.49512
G1 X131.873 Y149.548 E44.71648
G1 X135.198 Y148.713 E44.9455
G1 X138.609 Y148.114 E45.17686
G1 X141.965 Y147.76 E45.4023
G1 X145.458 Y147.631 E45.63581
G1 X145.499 Y147.094 F6000
G1 F1800
G1 X149.095 Y147.213 E45.87617
G1 X149.439 Y147.242 E45.89923
G1 X152.688 Y147.586 E46.11749
G1 X156.136 Y148.193 E46.35138
G1 X159.5 Y149.039 E46.58311
G1 X162.646 Y150.079 E46.80447
G1 X165.75 Y151.376 E47.02921
G1 X168.435 Y152.758 E47.23095
G1 X167.353 Y150.936 E47.37251
G1 X165.427 Y148.285 E47.59142
G1 X163.319 Y145.901 E47.80402
G1 X161.057 Y143.807 E48.00994
G1 X158.664 Y142.017 E48.20958
G1 X156.167 Y140.543 E48.40329
G1 X153.591 Y139.393 E48.59175
G1 X150.957 Y138.569 E48.77612
G1 X148.289 Y138.075 E48.95739
G1 X145.603 Y137.911 E49.13716
G1 X142.916 Y138.075 E49.317
G1 X140.247 Y138.569 E49.49833
G1 X137.614 Y139.393 E49.68264
G1 X135.038 Y140.543 E49.8711
G1 X132.542 Y142.017 E50.06475
G1 X130.148 Y143.807 E50.26444
G1 X127.886 Y145.901 E50.47036
G1 X125.778 Y148.285 E50.68296
